X:1287
T:Beauty Spot, The
R:reel
H:See also #465, #630
D:Fintan Vallely: Traditional Irish Flute Music
D:Liam O'Flynn
Z:id:hn-reel-421
M:C|
K:Dmix
~A2GB A2dB|cBcG EFGB|1 A2GB ABdB|cBce ed~d2:|2 ~A3d ~B3d|cBce ed~d2||
|:ed (3B^cd edcd|ed^cd e2ag|1 eAdg ed=cB|ABcd ed^cd:|2 fgdB =cABG|ABcd e2dB||
